X: 129014
T: OFF SHE GOES
%R: jig
B: James Kerr "Merry Melodies" v.1 p.29 s.0 #14
Z: 2016 John Chambers <jc:trillian.mit.edu>
M: 6/8
L: 1/8
K: D
[|\
vF2vA uG2uB | ABc d3 | F2A G2B | AFD EFG |\
F2A G2B | ABc d2e | f2d g2f | edc d3 ||
faf ud2uf | gbg ue2ug | faf d2f | ecA A2g |\
faf def | gbg efg | fed g2f | edc d2 |]

%%sep 1 1 500
%%sep 1 1 500

